www/assets/icons/playlist_add.svg

<svg width="24" height="24" viewBox="0 0 24 24" xmlns="http://www.w3.org/2000/svg" fill='currentColor'><path d="M13.5 9H2.5V11H13.5V9ZM13.5 5H2.5V7H13.5V5ZM17.5 13V9H15.5V13H11.5V15H15.5V19H17.5V15H21.5V13H17.5ZM2.5 15H9.5V13H2.5V15Z"/></svg>

<svg xmlns="http://www.w3.org/2000/svg" width="24" height="24" viewBox="0 0 24 24" fill='currentColor'><path d="M13.5 9h-11v2h11zm0-4h-11v2h11zm4 8V9h-2v4h-4v2h4v4h2v-4h4v-2zm-15 2h7v-2h-7z"/></svg>
